img/wa-icon.svg

<svg xmlns="http://www.w3.org/2000/svg" viewBox="0 0 128 128" width="24" height="24"><path d="M84.151 73.1c-.257-.412-.917-.655-1.908-1.156-.991-.499-5.86-2.888-6.768-3.221-.909-.322-1.569-.489-2.221.5-.653.998-2.558 3.222-3.136 3.888-.579.665-1.155.744-2.147.244-.992-.489-4.182-1.544-7.964-4.91-2.947-2.634-4.935-5.877-5.51-6.865-.575-.988-.061-1.533.434-2.022.446-.445.99-1.167 1.485-1.744a6.801 6.801 0 00.993-1.666 1.827 1.827 0 00-.084-1.734c-.248-.487-2.224-5.364-3.056-7.353-.801-1.943-1.621-1.666-2.223-1.698-.598-.034-1.236-.034-1.898-.034a3.64 3.64 0 00-2.641 1.243c-.907.99-3.466 3.388-3.466 8.265 0 4.866 3.55 9.576 4.047 10.243.497.654 6.984 10.663 16.924 14.95a56.854 56.854 0 005.648 2.09 13.578 13.578 0 006.237.399c1.905-.279 5.861-2.399 6.687-4.722.825-2.332.8-4.288.567-4.697zM24.191 104l5.624-20.549a39.571 39.571 0 01-5.294-19.816C24.521 41.784 42.313 24 64.166 24a39.654 39.654 0 0139.644 39.681c0 21.848-17.792 39.649-39.64 39.649h-.017a39.605 39.605 0 01-18.945-4.84zM46.18 91.317l1.205.713a32.904 32.904 0 0016.771 4.6h.014c18.161 0 32.947-14.79 32.955-32.961a32.954 32.954 0 10-60.87 17.518l.783 1.243-3.333 12.15z" fill="#fff"/></svg>

<?xml version="1.0" encoding="UTF-8" standalone="no"?>
<svg xmlns="http://www.w3.org/2000/svg" viewBox="0 0 128 128" width="24" height="24">
<path style="fill:#ffffff" d="M 84.151,73.1 C 83.894,72.688 83.234,72.445 82.243,71.944 C 81.252,71.445 76.383,69.056 75.475,68.723 C 74.566,68.401 73.906,68.234 73.254,69.223 C 72.601,70.221 70.696,72.445 70.118,73.111 C 69.539,73.776 68.963,73.855 67.971,73.355 C 66.979,72.866 63.789,71.811 60.007,68.445 C 57.06,65.811 55.072,62.568 54.497,61.58 C 53.922,60.592 54.436,60.047 54.931,59.558 C 55.377,59.113 55.921,58.391 56.416,57.814 A 6.8011,6.8011 0 0 0 57.409,56.148 A 1.8272,1.8272 0 0 0 57.325,54.414 C 57.077,53.927 55.101,49.05 54.269,47.061 C 53.468,45.118 52.648,45.395 52.046,45.363 C 51.448,45.329 50.81,45.329 50.148,45.329 A 3.6408,3.6408 0 0 0 47.507,46.572 C 46.6,47.562 44.041,49.96 44.041,54.837 C 44.041,59.703 47.591,64.413 48.088,65.08 C 48.585,65.734 55.072,75.743 65.012,80.03 A 56.854,56.854 0 0 0 70.66,82.12 A 13.578,13.578 0 0 0 76.897,82.519 C 78.802,82.24 82.758,80.12 83.584,77.797 C 84.409,75.465 84.384,73.509 84.151,73.1 Z M 24.191,104 L 29.815,83.451 A 39.571,39.571 0 0 1 24.521,63.635 C 24.521,41.784 42.313,24 64.166,24 A 39.654,39.654 0 0 1 103.81,63.681 C 103.81,85.529 86.018,103.33 64.17,103.33 H 64.153 A 39.605,39.605 0 0 1 45.208,98.49 Z M 46.18,91.317 L 47.385,92.03 A 32.904,32.904 0 0 0 64.156,96.63 H 64.17 C 82.331,96.63 97.117,81.84 97.125,63.669 A 32.954,32.954 0 1 0 36.255,81.187 L 37.038,82.43 L 33.705,94.58 Z" />
</svg>
